X:1
T:Title
%%score { ( 1 3 ) | ( 2 4 ) }
L:1/8
M:4/4
K:Bb
V:1 treble nm="Grand Piano"
V:3 treble 
V:2 bass 
V:4 bass 
V:1
 z4 z2[Q:1/4=100] [DF]>[DF] | [DF]2 [EG]>[DF] [DF]2 [DB]>[Ec] | [Fd]4 c2 cc | F2 A>B c2 d>c | %4
[M:3/4] [DB]6 |[M:1/4] B3/2 z/ |[M:4/4] [B,EG]2 [B,EG]>[B,FA] [B,GB]2 [B,FA]>[B,EG] | %7
 D2- [DB]2 [B,DF]2 A>G | F2 FF F2 G>A |[M:3/4] [B,DB]6 |[M:1/4] [DF]>E |[M:4/4] .D2 .D2 .D2 .D2 | %12
 .[DF]2 .[EG]2 .[B,DF]2 .[DB]>c | d2- [Fd]2 c2 c2 | F2 A>B .c2 d>c |[M:3/4] .D2 z2 z2 | %16
[M:1/4] B3/2 z/ |[M:4/4] [B,EG]2 [B,EG]>[B,FA] [B,GB]2 [B,FA]>[B,EG] | D2- [DB]2 [B,DF]2 A>G | %19
 F2 FF F2 G>A |[M:7/4] [DB]6 z2 z2 z4 |] %21
V:2
 z4 z2 [B,,B,]>[B,,B,] | [B,,B,]2 [B,,B,]>[B,,B,] [B,,B,]2 [B,,F,]>[B,,B,] | %2
 [B,,B,]4 [F,A,E]2 [F,A,E][F,A,E] | [F,A,E]2 [F,CE]>[F,E] [F,A,E]2 [F,B,F]>[F,E] | %4
[M:3/4] [B,,F,]6 |[M:1/4] z z/ A/ |[M:4/4] E,2 E,>E, E,2 E,>E, | z2 F,2 B,,2 [F,CD]>[F,B,D] | %8
 [F,A,E]2 [F,A,E][F,A,E] [F,A,E]2 [F,CE]>[F,CE] |[M:3/4] B,,6 |[M:1/4] z z/ C/ | %11
[M:4/4] .[B,,B,]2 .[B,,F,]2 .[B,,F,]2 .[B,,F,]2 | .[B,,B,]2 .[B,,B,]>F .B,,2 .[B,,F,]2 | %13
 .[B,,B,]2 .[B,,B,]2 .[F,A,E]2 .[F,A,E]2 | .[F,A,E]2 .[F,CE]2 .[F,A,E]2 .[F,A,E]2 | %15
[M:3/4] .[B,,F,]2 .B,,2 .B,,2 |[M:1/4] z z/ A/ |[M:4/4] E,2 E,>E, E,2 E,>E, | %18
 z2 F,2 B,,2 [F,CD]>[F,B,D] | [F,A,E]2 [F,A,E][F,A,E] [F,A,E]2 [F,CE]>[F,CE] | %20
[M:7/4] [B,,B,]6 z2 z2 z4 |] %21
V:3
 x8 | x8 | x8 | x8 |[M:3/4] x6 |[M:1/4] [B,F]2 |[M:4/4] x8 | [B,F]2 z2 z4 | x8 |[M:3/4] x6 | %10
[M:1/4] x2 |[M:4/4] x8 | x8 | .F2 z2 z4 | x8 |[M:3/4] B2- [G,EB-]2 [F,DB]2 |[M:1/4] [B,F]2 | %17
[M:4/4] x8 | [B,F]2 z2 z4 | x8 |[M:7/4] x14 |] %21
V:4
 x8 | x8 | x8 | x8 |[M:3/4] x6 |[M:1/4] D,2 |[M:4/4] x8 | B,,4 z4 | x8 |[M:3/4] x6 |[M:1/4] B,,2 | %11
[M:4/4] x8 | x8 | x8 | x8 |[M:3/4] x6 |[M:1/4] D,2 |[M:4/4] x8 | B,,4 z4 | x8 |[M:7/4] x14 |] %21

